teeny/outline/drag.svg

<svg width="15" height="15" viewBox="0 0 15 15" fill="none" xmlns="http://www.w3.org/2000/svg">
<path d="M7.5 7.5L7.63736 7.01924C7.46276 6.96935 7.27485 7.01805 7.14645 7.14645C7.01805 7.27485 6.96935 7.46276 7.01924 7.63736L7.5 7.5ZM9.5 14.5L9.01924 14.6374C9.07736 14.8408 9.25723 14.9856 9.46837 14.999C9.67952 15.0124 9.87623 14.8914 9.95957 14.697L9.5 14.5ZM14.5 9.5L14.697 9.95957C14.8914 9.87623 15.0124 9.67952 14.999 9.46837C14.9856 9.25723 14.8408 9.07736 14.6374 9.01924L14.5 9.5ZM11 11L10.803 10.5404C10.685 10.591 10.591 10.685 10.5404 10.803L11 11ZM3.5 3.5V3H3V3.5H3.5ZM13.5 3.5H14V3H13.5V3.5ZM3.5 13.5H3V14H3.5V13.5ZM0 1H1V0H0V1ZM4 1H5V0H4V1ZM8 1H9V0H8V1ZM0 5H1V4H0V5ZM0 9H1V8H0V9ZM7.01924 7.63736L9.01924 14.6374L9.98076 14.3626L7.98076 7.36264L7.01924 7.63736ZM14.6374 9.01924L7.63736 7.01924L7.36264 7.98076L14.3626 9.98076L14.6374 9.01924ZM9.95957 14.697L11.4596 11.197L10.5404 10.803L9.04043 14.303L9.95957 14.697ZM11.197 11.4596L14.697 9.95957L14.303 9.04043L10.803 10.5404L11.197 11.4596ZM3.5 4H13.5V3H3.5V4ZM13 3.5V7H14V3.5H13ZM3 3.5V13.5H4V3.5H3ZM3.5 14H7V13H3.5V14Z" fill="black"/>
</svg>

<svg viewBox="0 0 15 15" xmlns="http://www.w3.org/2000/svg"><path d="M7.5 7.5l.13-.49c-.18-.05-.37-.01-.5.12 -.13.12-.18.31-.13.49l.48-.14Zm2 7l-.49.13c.05.2.23.34.44.36 .21.01.4-.11.49-.31l-.46-.2Zm5-5l.19.45c.19-.09.31-.29.3-.5 -.02-.22-.16-.4-.37-.45l-.14.48ZM11 11l-.2-.46c-.12.05-.22.14-.27.26l.45.19ZM3.5 3.5V3H3v.5h.5Zm10 0h.5V3h-.5v.5Zm-10 10H3v.5h.5v-.5ZM0 1h1V0H0v1Zm4 0h1V0H4v1Zm4 0h1V0H8v1ZM0 5h1V4H0v1Zm0 4h1V8H0v1Zm7.01-1.37l2 7 .96-.28 -2-7L7 7.62Zm7.61 1.38l-7.01-2 -.28.96 6.99 2 .27-.97Zm-4.68 5.67l1.5-3.5 -.92-.4 -1.5 3.5 .91.39Zm1.23-3.24l3.5-1.51 -.4-.92 -3.5 1.49 .39.91Zm-7.7-7.46h10v-1h-10v1Zm9.5-.5v3.5h1v-3.5h-1Zm-10 0v10h1v-10h-1Zm.5 10.5h3.5v-1h-3.5v1Z"/></svg>
